X:1
T:A A Cameron's Strathspey
L:1/8
M:4/4
I:linebreak $
K:D
V:1 treble 
V:1
 e>A A2 B<Gd<B | e>A A2 B<g fe/d/ | e>A A2 B<Gd<B | g>BG>B d>g fe/d/ :| c<ee>f g<e a2 |$ %5
 c<ee>f g>e fe/d/ | c<ee>f g<e a2 | g>BG>B d>g fe/d/ :| %8
